X: 10685
T: Down The Hill
R: jig
M: 6/8
K: Adorian
B/A/G/|EAA A2B|c/B/A/B/c/A/ B/A/G/A/B/G/|~A/G/E/D/E/F/ ~G2A|Bc"dc"A GED|
EAA A2c|B/A/G/A/B/c/ dBd|e/f/~ge dBe|"(~)"A3 ~A>:|
|:Bc/d/|eaa a2b|c'/b/a/b/c'/a/ b"(dc)"g"(dc)"e|dgg g2a|b/a/g/a/~a/g/ ~age/d/|
eaa a2b|c'/b/a/b/c'/a/ b/a/g/a/~a/g/|a"(dc)"g"(dc)"e dBe|"(~)"A3 ~A>:|
|:B^c/e/|ae^c A>ce/c/|A>^ce/c/ d=cB|"(dc)"gdB G>Bd/B/|G/A/Bc dcB|
c/B/A/B/~B/A/ dB/c/d/B/|ea^g abc'|age dBe|"(~)"A3 ~A>:|

